X: 161
T: REEL: Trip to Durrow
C: C: Dan Cleary; S: Various
C: Set Leaders: Mars, Tania, Anton
Z: Mars Agliullin ed., Anton Zille ed.; SPeak at The Session
N: https://thesession.org/members/26966/sets/94276
R: Reel
M: 4/4
L: 1/8
Q: 1/2=100
K: Dmaj
|:D2DF ADFA|dfed ~B3c|dB~B2 dB~B2|ABDE FEEF|
D2DF ADFA|dfed ~B3c|dB~B2 ABdB|AFEG FDD2:||
|:d2de ~f3a|afdf gfed|(3Bcd ef gebe|gebe gfef|
d2de ~f3a|afdf gfed|(3Bcd ef gbag|fgef d2de|
fdec d2de|fdec B2Bc|dB~B2 dB~B2|ABDE FEEF|
D2DF ADFA|dfed ~B3c|dB~B2 ABdB|AFEG FDD2:||

